www/assets/icons/man.svg

<svg width="24" height="24" viewBox="0 0 24 24" xmlns="http://www.w3.org/2000/svg" fill='currentColor'><path d="M14 7H10C8.9 7 8 7.9 8 9V15H10V22H14V15H16V9C16 7.9 15.1 7 14 7Z"/><path d="M12 6C13.1046 6 14 5.10457 14 4C14 2.89543 13.1046 2 12 2C10.8954 2 10 2.89543 10 4C10 5.10457 10.8954 6 12 6Z"/></svg>

<svg xmlns="http://www.w3.org/2000/svg" width="24" height="24" viewBox="0 0 24 24" fill='currentColor'><path d="M14 7h-4c-1.1 0-2 .9-2 2v6h2v7h4v-7h2V9c0-1.1-.9-2-2-2m-2-1a2 2 0 1 0 0-4 2 2 0 0 0 0 4"/></svg>
